**kern	**kern	**dynam
*part1	*part1	*part1
*staff2	*staff1	*
*I"Piano	*	*
*clefF4	*clefG2	*
*k[f#]	*k[f#]	*
=1	=1	=1
*	*^	*
(1E	8r	8ryy	p
.	([4.g	8gLyy	.
.	.	8e	.
.	.	8BJ	.
.	4.g]	8G<	.
.	.	8BL	.
.	.	8e	.
.	8g	8gJ	.
=	=	=	=
1AA	8r	8ryy	.
.	[4.cc	8ccLyy	.
.	.	8a	.
.	.	8eJ	.
.	2cc]	8c<	.
.	.	8eL	.
.	.	8a	.
.	.	8ccJ	.
=	=	=	=
1BB	8r	8ryy	.
.	[4.f#	8f#Lyy	.
.	.	8d#X	.
.	.	8BJ	.
.	4.f#]	8F#<	.
.	.	8BL	.
.	.	8d#	.
.	8f#)	8f#J	.
=	=	=	=
2C#X	8r	8ryy	.
.	4.b	8bLyy	.
.	.	8e	.
.	.	8AJ	.
2D#X	8r	8ryy	.
.	4.a	8aLyy	.
.	.	8f#	.
.	.	8BJ	.
*	*v	*v	*
=	=	=
1E)	8r	.
.	(8gL	.
.	8e	.
.	8BJ	.
.	8G<	.
.	8BL	.
.	8e	.
.	8gJ)	.
=	=	=
1AA	8r	.
.	(8ccL	.
.	8g	.
.	8eJ	.
.	8c<	.
.	8eL	.
.	8g	.
.	8ccJ)	.
=	=	=
1D	8r	.
.	(8f#L	.
.	8d	.
.	8cJ	.
.	8A<	.
.	8cL	.
.	8d	.
.	8f#J)	.
=	=	=
*-	*-	*-
!!!system-decoration: {(s1,s2)}
!!!RDF**kern: < = below
